X:1
T:Tous mes amys
T:Claudin de Sermisy
T:Source : Chansons musicales eslevées de plusieurs livres---Paris---P.Attaignant---1535/1536. Editor : André Vierendeels ( 01/05/18). Notes : Original clefs : C1, C3, C3, F3 Original note values have been halved Editorial accidentals above the staff Square bracket indicates ligature
T:Tous mes amys
T:©
T:©
T:©
C:Claudin de Sermisy
Z:©
%%score [ 1 [ 2 3 ] 4 ]
L:1/8
Q:1/4=120
M:2/2
K:C
V:1 treble nm="Soprano" snm="S"
V:2 treble-8 nm="Tenor 1" snm="T 1"
V:3 treble-8 nm="Tenor 2" snm="T 2"
V:4 bass nm="Bass" snm="B"
V:1
 G8 | A4 A4 | B6 G2 | A2 B2 c3 B | AG A3 G G2- |"^#" G2 F2 G4 | z2 B2 B4 | z2 c2 c4- | c2 c2 e4- | %9
w: Tous|mes a-|mys, ve-|nez ma plain- *|* * * * cte|_ ou- yr,|ve- nez-|ve- nez|_ à la|
 e2 d2 c2 BA | G2 d3 c c2- | c2 B2 c4 | z2 B4 G2 | c4 B4- | B2 B2 d4- | d2 c2 B2 A2- | A2 G2 c4- | %17
w: _ plus de- * *|* so- * lé-|* * e|qui fut|ia- mais,|_ a- mour|_ m'a af- fo-|* lé- *|
 c2 BA B4 | z2 G2 A4 | A4 B4 | z2 G2 A4 | A4 B4- | B2 G2 A2 B2 | c3 B AG A2- | AG G4 F2 | %25
w: * * * e,|dung faulx|a- my|doib ie|pour- tant|_ _ _ _||* * * mou-|
 G4 z2 G2 | A4 A4 | B4 z2 G2 | A4 A4 | B6 G2 | A2 B2 c3 B | AG A3 G G2- |"^#" G2 F2 G4- | G8 |] %34
w: rir, d'ung|failx a-|my, doib|ie pour-|tant _|_ _ _ _||* mou- rir?|_|
V:2
 d8 | f4 edef | g6 d2 | e2 d2 cBAG | FD d4 c2 | d4 z2 d2 | d4 z2 g2 | g4 z2 g2 | g8 | e4 z2 g2 | %10
w: Tous|mes a- * * *|mys, ve-|nez ma plain- * * *|* * cte ou-|yr, ve-|nez, ve-|nez ve-|nez|_ à|
 g2 d2 e2 f2 | g4 e4 | z2 g4 fe | f4 g4 | g4 z2 d2 | d2 f2 g3 f | ed g4 f2 | g8 | z2 d2 f4 | %19
w: la plus de- so-|lé- e|qui _ _|fut ia-|mais, a-|mour m'a af- *|* * fo- lé|e,|dung faulx|
 edef g4- | g2 d2 f4 | edef g4- | g2 d2 e2 d2 | cBAG FD d2- | d2 c2 d4 | d4 z2 d2 | f4 edef | %27
w: a- * * * my|_ doib ie|pour- * * * tant|_ _ _ _||* * mou-|rir, d'ung|faulx a- * * *|
 g6 d2 | f4 edef | g6 d2 | e2 d2 cBAG | FD d4 c2 | d8- | d8 |] %34
w: my, doib|ie pour- * * *|tant _|_ _ _ _ _ _|* * mou- *|rir?|_|
V:3
 B8 | c4 c4 | d6 B2 | c2 d2 e2 c2 | d3 c B2 AG | A4 G4 | z2 d2 d4 | z2 e2 e4- | e4 z2 e2 | %9
w: Tous|mes a-|mys, ve-|nez ma plain- cte|ou- * * * *|* yr,|ve- nez,|ve- nez|_ à|
 c2 d2 e4 | e2 f3 edc | d4 c4 | z2 d2 eddc/B/ | c4 d4 | z2 d2 G2 G2 | B2 c2 d2 e2- | e2 d4 c2 | %17
w: la plus de-|so- lé- * * *|* e|qui fut _ _ _ _|ia- mais,|a- mour m'a|af- fo- lé- *||
 d8 | z2 B2 c4 | c4 d4 | z2 B2 c4 | c4 d4- | d2 B2 c2 d2 | e2 c2 d3 c | B2 AG A4 | G4 z2 B2 | %26
w: e,|d'ung faulx|a- my|doib ie|pour- tant|_ _ _ _||* * * mou-|rir, dung|
 c4 c4 | d4 z2 B2 | c4 c4 | d6 B2 | c2 d2 e2 c2 | d3 c B2 AG | A4 G4- | G8 |] %34
w: faulx a-|my doib|ie pour-|tant _|_ _ _ _||mou- rir?|_|
V:4
 G,8 | F,4 A,4 | G,8 | z2 G,2 C,2 F,2- | F,2 D,2 E,4 | D,4 z2 G,2 | G,8 | z2 C,2 C,4 | %8
w: Tous|mes a-|mys,|ve- nez ma|_ plain- *|cte ou-|yr,|ve- nez,|
 z2 C2 C3 B, | C2 B,2 A,2 G,2 | C2 B,2 A,4 | G,4 z2 C,2 | G,8 | A,4 G,4 | z2 G,2 B,4- | %15
w: ve- nez à|la plus de- so-|lé- * *|e qui|fut|ia- mais,|a- mour|
 B,2 A,2 G,2 C2- | C2 B,2 A,4 | G,8 | z2 G,2 F,4 | A,4 G,4 | z2 G,2 F,4 | A,4 G,4- | G,4 z2 G,2 | %23
w: _ m'a af- fo-|* * lé-|e,|d'ung faulx|a- my|doib ie|pou- tant,|_ doib|
 C,2 F,4 D,2 | E,4 D,4 | G,4 z2 G,2 | F,4 A,4 | G,4 z2 G,2 | F,4 A,4 | G,8 | z2 G,2 C,2 F,2- | %31
w: ie pour- tant|mou- *|rir, dung|faulx a-|my doib|ie pour-|tant,|doib ie pour-|
 F,2 D,2 E,4 | D,4 G,4- | G,8 |] %34
w: * tant mou-|* rir?|_|

